X: 61
T:Reel Saint-Joseph
R:Reel
S:Portland collection
M:4/4
L:1/8
Q:300
K:D
"D"defd "A"cdec|"A"defd A2 dc|"G"B2 gf edcB|"A" Aaab agfe|
"D"defd "A"cdec|"A"defd A2 dc|"G"B2 gf edcB|1 "A"Agec "D"d4|2"A"Agec "D"
d2:|
e2|"D" f2 fg fedc|"G"BA G2 "Em"g3 f|"A"e2 ef edcB|Aaab agfe|
"D" f2 fg fedc|"G"BA G2 "Em"g3 f|"A"e2 ef edcB|1"A"Agec "D"d2|2"A"Agec "
D"d4:|
